X: 38
T: Before the Gathering of the Clouds
C: Teton Sioux band 1911-1914
N: Derived from sioux038.krn
O: South Dakota, U.S.A.
N: Teton Sioux Music by Frances Densmore, 1918
Z: transcribed to **kern format by Craig Sapp
L: 1/8
M: 2/4
Q: 1/4=58
K: B clef=bass
%%linebreak <none>
D DD2 [I:setbarnb 1]||  
[M:3/4]D2C C/ C/C2 ||  
[M:2/4]C B,G,2 | 
D D (D/ B,3/) ||  
[M:3/4]B,2B, G,/ G,/G,2 | 
G, F,D,2D,3/ D,/ ||  
[M:2/4]G, G, G,3/ B,/ | 
(B,< G,)G,2 ||  
[M:3/4]F,2F,2F, D, ||  
[M:2/4]D, D, D,3/ D,/ | 
D,4 | 
D,3D/ B,/ | 
B,> B, B, B, | 
B, G, D D ||  
[M:3/4](D< B,)B,2B,3/ G,/ | 
G,2G,2G,3/ F,/ ||  
[M:2/4]D,> D,D,2 | 
G, G, G,3/ B,/ | 
(B,< G,) G,3/ G,/ ||  
[M:3/4]F,2F,2F, D,/ D,/ ||  
[M:2/4]D,< D, D,3/ D,/ | 
D,4 |]  



